X:1
T:Bennett's Reel
R:reel
C:Trad.
S:Cyril Stinnett
A:Missouri
Z:B. Shull, trans.; R.P. LaVaque, ABCs
M:2/4
L:1/16
Q:120
K:D
((3A,B,C)|D2)FE (DF)A(B|dc)df e(cA)F|GBEG (FE)D(F|GF)ED CEA,C|!
D2FE (DF)A(B|dc)df e(cA)F|GBEG (FE)DF)|(ED)CE D2:|!
|:D(B,|A,B,)CD (EF)G(E|FD)EC (DF)A(c|dc)dA FAd(e|gf)g(f e)(dc)A|!
(de)fd (cd)ec|(Bc)(dB) A(GF)D|(GF)EG (FE)DF|(EDCE D2:|

